X: 23
T: Lamberton Races
%R: reel
B: Urbani & Liston "A Selection of Scotch, English Irish, and Foreign Airs", Edinburgh 1800, p.10
F: http://www.vwml.org/browse/browse-collections-dance-tune-books/browse-urbani1800
Z: 2014 John Chambers <jc:trillian.mit.edu>
M: C
L: 1/8
K: G
B |\
(BG).d.g bgaf | g(edB) (cAA)B |\
(GBd).g bgaf | (ge)Td>c (BGG) :|
|: c |\
BdGd BdGd | Tc>d (e/d/).c/.B/ (cAAB) |\
(GB).d.g bgaf | (ge)Td>c BGG :|
